X: 4594
T: Boules Et Guirlandes
R: mazurka
M: 3/4
K: Gmajor
M:6/4
G>d d>B d2 A>B c>d c>B|G>d d>B (3ded A>B c>d G2|
G>d d>B (3ded A>B c>d c>B|G>d d>B d2 A>B c>d c>B||
G2 F>G B>c B>G F>G A>F|(3GAG F>G A>G c>d c>B G>F|
(3GAG F>G B>c B>G F>G A>F|G2 F>G A>G c>d c>B G>F||

